!!!!SEGMENT: pl-wtm--670-sp-3678--001-005_taubert-wilhelm--piosenki-dla-mlodocianego-wieku-piotr-maszynski-5-zima.krn
!!!cenid: 18xx:4757
!!!COM: Taubert, Wilhelm
!!!COM-rismID: pe124431
!!!CDT: 1811/03/23-1891/01/07
!!!CNT: German
!!!GTL: Piosenki dla młodocianego wieku (Piotr Maszyński)
!!!OTL: 5. Zima
!!!OMV: 005
!!!PDT: 1871
!!!AGN: Secular; Song; Children
!!!YEC: Copyright 2022 Narodowy Instytut Fryderyka Chopina (https://polishscores.org)
!!!YEM: License CC-BY-4.0 (https://creativecommons.org/licenses/by/4.0)
!!!SMS-siglum: PL-Wtm
!!!SMS-shelfmark: 670 śp 3678
!!!SMS-variant:
!!!SMS-altvar:
!!!SMS-shelfwork: 001-005 G
!!!NIFC-rismSourceID: 1001185478
!!!NIFC-rismChildID: 1001185478
!!!NIFC-islandoraID: pl-wtm:57754
!!!URL-pdf-islandora: https://repozytorium.nifc.pl/islandora/object/pl-wtm%3A57754/datastream/PDF/view
!!!URL-scan: https://polish.musicsources.pl/pl/lokalizacje/galeria/druki-muzyczne/19483/5 @EN{Scan on Polish Music Sources Website} @PL{Skany w portalu Dziedzictwo Muzyki Polskiej w otwartym dostępie}
!!!IIIF:
!!!ONB-nifc:
!!!AIN: 1 canto 1 piano
!!!key: a
**kern	**fing	**kern	**dynam	**kern	**text	**text	**text	**text
*part2	*	*part2	*part2	*part1	*part1	*part1	*part1	*part1
*staff3	*	*staff2	*staff2/3	*staff1	*staff1	*staff1	*staff1	*staff1
*IGacmp	*	*IGacmp	*	*	*	*	*	*
*ICklav	*	*ICklav	*	*ICvox	*	*	*	*
*Ipiano	*	*Ipiano	*	*Icanto	*	*	*	*
*I"Fortepian.	*	*I"Fortepian.	*	*I"Śpiew.	*	*	*	*
*I'	*	*I'	*	*I'	*	*	*	*
*clefF4	*	*clefG2	*	*clefG2	*	*	*	*
*k[]	*	*k[]	*	*k[]	*	*	*	*
*a:	*	*a:	*	*a:	*	*	*	*
*M3/4	*	*M3/4	*	*M3/4	*	*	*	*
*>[A,B,B1,B,B1,B,B1,B,B2]	*>[A,B,B1,B,B1,B,B1,B,B2]	*>[A,B,B1,B,B1,B,B1,B,B2]	*>[A,B,B1,B,B1,B,B1,B,B2]	*>[A,B,B1,B,B1,B,B1,B,B2]	*>[A,B,B1,B,B1,B,B1,B,B2]	*>[A,B,B1,B,B1,B,B1,B,B2]	*>[A,B,B1,B,B1,B,B1,B,B2]	*>[A,B,B1,B,B1,B,B1,B,B2]
=1	=1	=1	=1	=1	=1	=1	=1	=1
*>A	*>A	*>A	*>A	*>A	*>A	*>A	*>A	*>A
!!LO:TX:a:B:t=Moderato
(8eL 8c 8A'\	.	4r	p	2.r	.	.	.	.
8e 8c 8A'\	.	.	.	.	.	.	.	.
8e 8c 8A'\	.	4r	.	.	.	.	.	.
8e 8c 8A'\	.	.	.	.	.	.	.	.
8e 8c 8A'\	.	(8aa\L	.	.	.	.	.	.
8eJ 8c 8A'\)	.	16.ee\L)	.	.	.	.	.	.
.	.	32cc\JJk	.	.	.	.	.	.
=2	=2	=2	=2	=2	=2	=2	=2	=2
!	!	!	!LO:HP:b=2	!	!	!	!	!
(8eL 8c 8A\'	.	2a/	<	2.r	.	.	.	.
8e 8c 8A\'	.	.	.	.	.	.	.	.
8f 8d#X 8c 8A\'	.	.	.	.	.	.	.	.
.	.	.	[	.	.	.	.	.
!	!	!	!LO:HP:b=2	!	!	!	!	!
8f 8d# 8c 8A\'	.	.	>	.	.	.	.	.
8e 8c 8A\'	.	(8aa\L	.	.	.	.	.	.
8eJ 8c 8A\')	.	16.ee\L)	.	.	.	.	.	.
.	.	.	]	.	.	.	.	.
.	.	32cc\JJk	.	.	.	.	.	.
=3	=3	=3	=3	=3	=3	=3	=3	=3
!	!	!	!LO:HP:b=2	!	!	!	!	!
(8eL 8c 8A'\	.	2a/	<	2.r	.	.	.	.
8e 8c 8A'\	.	.	.	.	.	.	.	.
8f 8d#X 8c 8A'\	.	.	.	.	.	.	.	.
.	.	.	[	.	.	.	.	.
!	!	!	!LO:HP:b=2	!	!	!	!	!
8f 8d# 8c 8A'\	.	.	>	.	.	.	.	.
8c 8A'\)	.	(8e/L	.	.	.	.	.	.
8A\J	1	16.a/L)	.	.	.	.	.	.
.	.	.	]	.	.	.	.	.
.	.	32cc/JJk	.	.	.	.	.	.
!!LO:LB:g=original
=4	=4	=4	=4	=4	=4	=4	=4	=4
*	*	*^	*	*	*	*	*	*
(8F#X\L	.	8.b/L	8d#X\L	.	2.r	.	.	.	.
16.D#X\L)	.	.	8f#X\J	.	.	.	.	.	.
.	.	16a/Jk	.	.	.	.	.	.	.
32BB\JJk	.	.	.	.	.	.	.	.	.
4Fn\	.	4a/	[4dn\	.	.	.	.	.	.
4E\	.	4g#X/	8d\L]	.	.	.	.	.	.
.	.	.	16.B\L	.	.	.	.	.	.
.	.	.	32e\JJk	.	.	.	.	.	.
=5	=5	=5	=5	=5	=5	=5	=5	=5	=5
*^	*	*	*	*	*	*	*	*	*
8.rA	2.AA\	.	2.a/	8e\L	.	2.r	.	.	.	.
.	.	.	.	[8c\J	.	.	.	.	.	.
16E/	.	.	.	.	.	.	.	.	.	.
2A/	.	.	.	2c\]	.	.	.	.	.	.
*v	*v	*	*	*	*	*	*	*	*	*
*	*	*v	*v	*	*	*	*	*	*
=6!|:	=6!|:	=6!|:	=6!|:	=6!|:	=6!|:	=6!|:	=6!|:	=6!|:
*>B	*>B	*>B	*>B	*>B	*>B	*>B	*>B	*>B
4r	.	(8eeL 8cc/	.	8ee\	A-	U-	O-	Tu
.	.	8cc 8a/	.	8cc\	-ni	-milkł	-pu-	mam
[4E\	.	8dd 8b/	.	8dd\	śla-	pta-	-sto-	cie-
.	.	8bJ 8d/	.	8b\	-du	-sząt	-szał	-pły
(8E/L]	.	4a 4c/)	.	4a/	już,	chór,	gaj,	kąt
16.C/L)	.	.	.	.	.	.	.	.
32AA/JJk	.	.	.	.	.	.	.	.
!!LO:LB:g=original
=7	=7	=7	=7	=7	=7	=7	=7	=7
4EE/	.	(8bL 8g#X/	.	8b\	pię-	o-	da-	i
.	.	8cc 8a/	.	8cc\	-knych,	-pu-	-wny	nie
(8F\L	.	8dd 8b/	.	8dd\	won-	-sto-	pta-	wyj-
8D#X\J	.	8ccJ 8a/	.	8cc\	-nych	-szał	-sząt	-dę
8E\L	.	4b 4g#/)	.	4b\	róż,	bór,	raj,	ztąd,
16.Dn\L)	.	.	.	.	.	.	.	.
32BB\JJk	.	.	.	.	.	.	.	.
=8	=8	=8	=8	=8	=8	=8	=8	=8
*	*	*	*^	*	*	*	*	*
!	!	!	!	!LO:HP:b=2	!	!	!	!	!
(4E 4C\	.	8a/L	.	<	8a/	jak	za	śród	pó-
.	.	(8a/	<	.	8a/	za-	to	bez-	-ki
4A 4F 4D\	.	8b/)	[	[	8b\	-się-	w o-	-list-	sty-
.	.	8b/	.	.	8b\	-gnie	-kno	-nych	-czeń
4G#X 4E\)	.	(8b/	.	.	8b\	o-	cha-	wi-	mro-
.	.	8e/J)	.	.	8e/	-ko	-ty	-ci	-źny
*	*	*	*v	*v	*	*	*	*	*
!!LO:PB:g=original
=9	=9	=9	=9	=9	=9	=9	=9	=9
!LO:N:vis=8	!	!	!	!	!	!	!	!
(4E 4C\L	.	8a/L	.	8a/	le-	ma-	gnia-	w swej
.	.	(8a/	<	8a/	-ży	-ły	-zdka	po-
!LO:N:vis=8	!	!	!	!	!	!	!	!
4A 4F 4D\J	.	8b/)	[	8b\	śnieg	gość	nie	-sta-
.	.	8b/	.	8b\	głę-	skrzy-	po-	-ci
4G#X 4E\)	.	(8b/	.	8b\	-bo-	-dla-	-świe-	gro-
.	.	8e/J)	.	8e/	-ko,	-ty	-ci,	-źnej
=10	=10	=10	=10	=10	=10	=10	=10	=10
4r	.	(8aL 8c/	.	8a/	na	wsu-	smu-	nie
.	.	8b 8d/	.	8b\	ga-	-wa	-tno,	u-
8r	.	8cc 8e/	.	8cc\	-łąz-	głów-	głu-	-stą-
([8A\	.	8aJ 8c/	.	8a/	-kach	-kę	-cho	-pi
8A\L]	.	4dd 4f/)	.	4dd\	brzóz	swą	tam,	wprzód,
16.F\L)	.	.	.	.	.	.	.	.
32D\JJk	.	.	.	.	.	.	.	.
!!LO:LB:g=original
=11	=11	=11	=11	=11	=11	=11	=11	=11
*	*	*^	*	*	*	*	*	*
4G\	.	(<8gL 8B/	2f\	.	8g/	bia-	by	le-	pó-
.	.	8a 8c/	.	.	8a/	-ły	na-	-piej	-ki
8r	.	8b 8d/	.	.	8b\	o-	-kar-	w do-	śnieg
([8G\	.	8gJ 8B/	.	.	8g/	-siadł	-mić	-mu	i
8G\L]	.	4cc 4e/)	4ryy	.	4cc\	mróz,	go,	nam,	lód,
16.E\L)	.	.	.	.	.	.	.	.	.
32C\JJk	.	.	.	.	.	.	.	.	.
=12	=12	=12	=12	=12	=12	=12	=12	=12	=12
(8F#X\L	.	8.b/L	8d#X\L	.	8.b\	bia-	by	le-	pó-
16.D#X\L)	.	.	8f#X\J	.	.	.	.	.	.
.	.	16a/Jk	.	.	16a/	-ły	na-	-piej	-ki
32BB\JJk	.	.	.	.	.	.	.	.	.
4Fn\	.	4a/	[4dn\	.	4a/	o-	-kar-	w do-	śnieg
4E\	.	4g#X/	8d\L]	.	4g#X/	-siadł	-mić	-mu	i
.	.	.	16.B\L	.	.	.	.	.	.
.	.	.	32e\JJk	.	.	.	.	.	.
!!LO:LB:g=original
=13	=13	=13	=13	=13	=13	=13	=13	=13	=13
*^	*	*	*	*	*	*	*	*	*
!!LO:TX:a:B:t=1. 2. 3.
*>B1	*>B1	*>B1	*>B1	*>B1	*>B1	*>B1	*>B1	*>B1	*>B1	*>B1
8.rA	4AA\	.	2a/	8e\	.	2.a/	mróz.	go.	nam.	.
.	.	.	.	4c\	.	.	.	.	.	.
16E/	.	.	.	.	.	.	.	.	.	.
8A/L	8ryy	.	.	.	.	.	.	.	.	.
(8e 8c'/	8A\L	.	.	4.ryy	p	.	.	.	.	.
8e 8c'/	8A\	.	(8aa\L	.	.	.	.	.	.	.
8eJ 8c'/)	8A\J	.	16.ee\L)	.	.	.	.	.	.	.
.	.	.	32cc\JJk	.	.	.	.	.	.	.
*v	*v	*	*	*	*	*	*	*	*	*
*	*	*v	*v	*	*	*	*	*	*
=14	=14	=14	=14	=14	=14	=14	=14	=14
!	!	!	!LO:HP:b=2	!	!	!	!	!
(8eL 8c 8A'\	.	2a/	<	2.r	.	.	.	.
8e 8c 8A'\	.	.	.	.	.	.	.	.
8f 8d#X 8c 8A'\	.	.	.	.	.	.	.	.
.	.	.	[	.	.	.	.	.
!	!	!	!LO:HP:b=2	!	!	!	!	!
8f 8d# 8c 8A'\	.	.	>	.	.	.	.	.
8e 8c 8A'\	.	(8aa\L	.	.	.	.	.	.
8eJ 8c 8A'\)	.	16.ee\L)	.	.	.	.	.	.
.	.	.	]	.	.	.	.	.
.	.	32cc\JJk	.	.	.	.	.	.
=15	=15	=15	=15	=15	=15	=15	=15	=15
!	!	!	!LO:HP:b=2	!	!	!	!	!
(8eL 8c 8A'\	.	2.a/	<	2.r	.	.	.	.
8e 8c 8A'\	.	.	.	.	.	.	.	.
8f 8d#X 8c 8A'\	.	.	.	.	.	.	.	.
.	.	.	[	.	.	.	.	.
!	!	!	!LO:HP:b=2	!	!	!	!	!
8f 8d# 8c 8A'\	.	.	>	.	.	.	.	.
8e 8c 8A'\	.	.	.	.	.	.	.	.
8eJ 8c 8A'\)	.	.	.	.	.	.	.	.
.	.	.	]	.	.	.	.	.
=16:|!	=16:|!	=16:|!	=16:|!	=16:|!	=16:|!	=16:|!	=16:|!	=16:|!
*^	*	*^	*	*	*	*	*	*
!!LO:TX:a:B:t=4.
*>B2	*>B2	*>B2	*>B2	*>B2	*>B2	*>B2	*>B2	*>B2	*>B2	*>B2
8.rA	2.AA\	.	2.a/	8e\L	]	2.a/	lód.	.	.	.
.	.	.	.	[8c\J	.	.	.	.	.	.
16E/	.	.	.	.	.	.	.	.	.	.
2A/	.	.	.	2c\]	.	.	.	.	.	.
*v	*v	*	*	*	*	*	*	*	*	*
*	*	*v	*v	*	*	*	*	*	*
==	==	==	==	==	==	==	==	==
*-	*-	*-	*-	*-	*-	*-	*-	*-
!!!system-decoration: s1{(s2,s3)}
!!!RDF**kern: > = above
!!!RDF**kern: < = below
!!!RDF**kern: N = linked
!!!ENC: Andrzej Gręziak
!!!EED: Katarzyna Serwa
!!!END: 2025-03-25
!!!EEV: 2025-03-27
